X: 29864
T: O'Hare's Tilt
R: jig
M: 6/8
K: Dmajor
DAF GAB|ABG FED|GdB =cBA|GED EGE|
DAF GAB|ABG FAD|GdB =cBA|GED D2D|
DAF GAB|ABG FED|gdB =c2A|GED EGE|
DAF GAB|ABG FED|GdB =cBA|GED DFG|
|:Adc ded|cde a2g|fed ecA|GED EFG|
Adc ded|cde a2g|fdg ecA|1 GEA DFG:|2 GEA DAG||
|:FGA GED|D2D EFG|Adc def|gaf edc|
Ace dAF|GED EFG|Add ecA|1 GED DAG:|2 GED D3||

